X:388
T: Die Gefangene (114a), S. 269
N: T0277
O: Luxemburg
S: Singendes Volk, Esch-Alzette 1937 posth.]
N: Straen, fff Witry, 31.1.1933;
N: (114b)- Heffingen, Anna Kimmel, Mrz 1933
N: (114c)- Blascheid, fff Hitting, 1902
R: Liebeslieder]
M: 2/4
L: 1/8
K: F
 | A3A | AAGF | EGBz |
B3B | BBdd | c2z2 |
c3A | fedc | Gddz |
c3f | ccBc | A2z2

@@@ Tune index: 8442
